32x32/emotes/face-monkey.svg

<svg xmlns="http://www.w3.org/2000/svg" width="32" height="32" version="1">
 <circle style="opacity:0.2" cx="5" cy="13" r="5"/>
 <circle style="opacity:0.2" cx="27" cy="13" r="5"/>
 <path style="opacity:0.2" d="M 16,3 C 8.244,3 2,9.244 2,17 2,24.756 8.244,31 16,31 23.756,31 30,24.756 30,17 30,9.244 23.756,3 16,3 Z"/>
 <path style="opacity:0.1;fill:#f4f4f7" d="M 5 7 A 5 5 0 0 0 0 12 A 5 5 0 0 0 0.02734375 12.484375 A 5 5 0 0 1 5 8 A 5 5 0 0 1 9.9726562 12.515625 A 5 5 0 0 0 10 12 A 5 5 0 0 0 5 7 z"/>
 <circle style="fill:#684c2a" cx="5" cy="12" r="5"/>
 <circle style="fill:#684c2a" cx="27" cy="12" r="5"/>
 <path style="opacity:0.1;fill:#f4f4f7" d="M 27 7 A 5 5 0 0 0 22 12 A 5 5 0 0 0 22.027344 12.484375 A 5 5 0 0 1 27 8 A 5 5 0 0 1 31.972656 12.515625 A 5 5 0 0 0 32 12 A 5 5 0 0 0 27 7 z"/>
 <path style="fill:#9d672b" d="M 16,2 C 8.244,2 2,8.244 2,16 2,23.756 8.244,30 16,30 23.756,30 30,23.756 30,16 30,8.244 23.756,2 16,2 Z"/>
 <path style="opacity:0.2" d="M 11 8 A 5 5 0 0 0 6 13 A 5 5 0 0 0 8.8066406 17.486328 A 11 7.6999998 0 0 0 5 23.300781 A 11 7.6999998 0 0 0 5.2910156 25.027344 C 7.8551845 28.069537 11.691718 30 16 30 C 20.305765 30 24.140916 28.072316 26.705078 25.033203 A 11 7.6999998 0 0 0 27 23.300781 A 11 7.6999998 0 0 0 23.201172 17.484375 A 5 5 0 0 0 26 13 A 5 5 0 0 0 21 8 A 5 5 0 0 0 16 13 A 5 5 0 0 0 16.75 15.626953 A 11 7.6999998 0 0 0 16 15.599609 A 11 7.6999998 0 0 0 15.251953 15.619141 A 5 5 0 0 0 16 13 A 5 5 0 0 0 11 8 z"/>
 <ellipse style="fill:#e2bf56" cx="16" cy="22.3" rx="11" ry="7.7"/>
 <circle style="fill:#e2bf56" cx="11" cy="12" r="5"/>
 <rect style="fill:#e2bf56" width="8.4" height="5.6" x="11.8" y="11.8"/>
 <circle style="opacity:0.1" cx="11" cy="12" r="2"/>
 <circle style="fill:#e2bf56" cx="21" cy="12" r="5"/>
 <circle style="opacity:0.1" cx="21" cy="12" r="2"/>
 <circle style="fill:#17191e" cx="11" cy="11" r="2"/>
 <circle style="fill:#17191e" cx="21" cy="11" r="2"/>
 <path style="opacity:0.1;fill:none;stroke:#000000;stroke-width:1.5;stroke-linecap:round;stroke-linejoin:round" d="m 9.7060095,22.45 c 0,0 2.0999995,2.8 6.2999995,2.8 4.2,0 6.3,-2.8 6.3,-2.8 v 0 0"/>
 <path style="fill:none;stroke:#17191e;stroke-width:1.5;stroke-linecap:round;stroke-linejoin:round" d="m 9.7060095,21.45 c 0,0 2.0999995,2.8 6.2999995,2.8 4.2,0 6.3,-2.8 6.3,-2.8 v 0 0"/>
 <path style="fill:#f4f4f7;opacity:0.1" d="M 16 2 C 8.244 2 2 8.244 2 16 C 2 16.168842 2.0195214 16.33264 2.0253906 16.5 C 2.2891326 8.9794325 8.4128418 3 16 3 C 23.500fae9 3 29.710867 8.9794325 29.974609 16.5 C 29.980479 16.33264 30 16.168842 30 16 C 30 8.244 23.756 2 16 2 z"/>
</svg>

<svg xmlns="http://www.w3.org/2000/svg" width="32" height="32" version="1"><circle style="opacity:.2" cx="5" cy="13" r="5"/><circle style="opacity:.2" cx="27" cy="13" r="5"/><path style="opacity:.2" d="M16 3C8.244 3 2 9.244 2 17s6.244 14 14 14 14-6.244 14-14S23.756 3 16 3z"/><path style="opacity:.1;fill:#f4f4f7" d="M5 7a5 5 0 0 0-5 5 5 5 0 0 0 .027.484A5 5 0 0 1 5 8a5 5 0 0 1 4.973 4.516A5 5 0 0 0 10 12a5 5 0 0 0-5-5z"/><circle style="fill:#684c2a" cx="5" cy="12" r="5"/><circle style="fill:#684c2a" cx="27" cy="12" r="5"/><path style="opacity:.1;fill:#f4f4f7" d="M27 7a5 5 0 0 0-5 5 5 5 0 0 0 .027.484A5 5 0 0 1 27 8a5 5 0 0 1 4.973 4.516A5 5 0 0 0 32 12a5 5 0 0 0-5-5z"/><path style="fill:#9d672b" d="M16 2C8.244 2 2 8.244 2 16s6.244 14 14 14 14-6.244 14-14S23.756 2 16 2z"/><path style="opacity:.2" d="M11 8a5 5 0 0 0-5 5 5 5 0 0 0 2.807 4.486A11 7.7 0 0 0 5 23.301a11 7.7 0 0 0 .291 1.726A13.951 13.951 0 0 0 16 30c4.306 0 8.14-1.928 10.705-4.967A11 7.7 0 0 0 27 23.301a11 7.7 0 0 0-3.799-5.817A5 5 0 0 0 26 13a5 5 0 0 0-5-5 5 5 0 0 0-5 5 5 5 0 0 0 .75 2.627A11 7.7 0 0 0 16 15.6a11 7.7 0 0 0-.748.02A5 5 0 0 0 16 13a5 5 0 0 0-5-5z"/><ellipse style="fill:#e2bf56" cx="16" cy="22.3" rx="11" ry="7.7"/><circle style="fill:#e2bf56" cx="11" cy="12" r="5"/><path style="fill:#e2bf56" d="M11.8 11.8h8.4v5.6h-8.4z"/><circle style="opacity:.1" cx="11" cy="12" r="2"/><circle style="fill:#e2bf56" cx="21" cy="12" r="5"/><circle style="opacity:.1" cx="21" cy="12" r="2"/><circle style="fill:#17191e" cx="11" cy="11" r="2"/><circle style="fill:#17191e" cx="21" cy="11" r="2"/><path style="opacity:.1;fill:none;stroke:#000;stroke-width:1.5;stroke-linecap:round;stroke-linejoin:round" d="M9.706 22.45s2.1 2.8 6.3 2.8c4.2 0 6.3-2.8 6.3-2.8v0"/><path style="fill:none;stroke:#17191e;stroke-width:1.5;stroke-linecap:round;stroke-linejoin:round" d="M9.706 21.45s2.1 2.8 6.3 2.8c4.2 0 6.3-2.8 6.3-2.8v0"/><path style="fill:#f4f4f7;opacity:.1" d="M16 2C8.244 2 2 8.244 2 16c0 .169.02.333.025.5C2.29 8.98 8.413 3 16 3"/></svg>
